icon-themes/sifr_svg/cmd/sc_pasteunformatted.svg

<svg viewBox="0 0 16 16" xmlns="http://www.w3.org/2000/svg"><path d="m5 1v3h6v-3zm-2 1c-.554 0-1 .446-1 1v11c0 .554.446 1 1 1h3v-2h-2v-8-1-2zm9 0v3h2v-2c0-.553742-.38-1-1-1zm-5 4v2h8v-2zm0 3v2h8v-2zm0 3v2h8v-2z" fill="#555753"/></svg>

<svg xmlns="http://www.w3.org/2000/svg" viewBox="0 0 16 16">
  <path
     style="fill:#555753"
     d="M 5 1 L 5 4 L 11 4 L 11 1 L 5 1 z M 3 2 C 2.446 2 2 2.446 2 3 L 2 14 C 2 14.554 2.446 15 3 15 L 6 15 L 6 13 L 4 13 L 4 5 L 4 4 L 4 2 L 3 2 z M 12 2 L 12 5 L 14 5 L 14 3 C 14 2.446258 13.62 2 13 2 L 12 2 z M 7 6 L 7 8 L 15 8 L 15 6 L 7 6 z M 7 9 L 7 11 L 15 11 L 15 9 L 7 9 z M 7 12 L 7 14 L 15 14 L 15 12 L 7 12 z "
     />
</svg>
